static/assets/template/assets/img/icons/essential/detailed/ATM_2.svg

<svg height="144" viewBox="0 0 148 144" width="148" xmlns="http://www.w3.org/2000/svg"><g fill="none" fill-rule="evenodd" transform="translate(1 1)"><path d="m38.9.5h106.4v140.4h-144.5v-140.4h5.7" fill-rule="nonzero"/><path d="m145.3 5.3v135.6h-144.7v-128.2c0-4.1 3.4-7.4 7.5-7.4z" fill-rule="nonzero"/><path d="m145.3 32.3v16.6h-144.7v-5.7c0-6 4.9-10.9 10.9-10.9z" fill="#c3dbf7" fill-rule="nonzero"/><path d="m25.9 32.6c-3.2 4.1-6.2 10.4-8 16.3-.8 2.6-1.3 5.1-1.5 7.3-1.4 12.6-2.7 24-2.2 36.7.2 3.7.7 7.9-1 11.3-.8 1.7-2.8 4.1-4.1 5.6-2.8 3.2-5.8 7.6-8.6 10.7v-81.1c0-3.4 2.8-6.3 6.2-6.3z" fill-rule="nonzero"/><path d="m145.3 33.1v86.3c-24-27.8-7.4-5.8-16.3-62.1-.4-2.5-.7-5.4-1.2-8.4-.9-5.8-2.2-11.9-5.2-15.8z" fill-rule="nonzero"/><path d="m6.8 33 19.1-.4c-3.2 4.1-6.2 10.4-8 16.3h-17.3v-9.6c0-3.4 2.8-6.3 6.2-6.3z" fill="#80b9ff" fill-rule="nonzero"/><path d="m145.3 33.1v15.8h-17.4c-.9-5.8-2.2-11.9-5.2-15.8z" fill="#80b9ff" fill-rule="nonzero"/><path d="m30.4.5h114.9v140.4h-144.5v-140.4h12.2" stroke-linecap="round" stroke-linejoin="round" stroke-width="3"/><path d="m19.9.5h3.3" stroke-linecap="round" stroke-linejoin="round" stroke-width="3"/><path d="m8.3 32.5h135.9" stroke-linecap="round" stroke-linejoin="round" stroke-width="3"/><path d="m120.1 102.2h-105.2l-14.1 18.1h144.6l-14.4-18.1z" fill-rule="nonzero"/><path d="m128.7 120.3h16.7l-14.4-18.1h-10.9" stroke-linecap="round" stroke-linejoin="round" stroke-width="3"/><path d="m120.1 102.2h-105.2l-14.1 18.1h117.9" stroke-linecap="round" stroke-linejoin="round" stroke-width="3"/><path d="m23.6 33.1c-2.5 3.7-11.1 33.5-8.7 69.1" stroke-linecap="round" stroke-linejoin="round" stroke-width="3"/><path d="m129.7 61.7c1.3 9.3 2.2 20.2 1.9 32.1" stroke-linecap="round" stroke-linejoin="round" stroke-width="3"/><path d="m122.6 33.1c1.1 1.7 3.6 9 5.7 19.9" stroke-linecap="round" stroke-linejoin="round" stroke-width="3"/><path d="m31.2 91.3h50.5s-.9-26.4-2.6-35.6c-28.8 0-47 0-47 0-.7 11.9-1.3 22-.9 35.6z" fill-rule="nonzero"/><g stroke-linecap="round" stroke-linejoin="round" stroke-width="3"><path d="m42.2 55.7c-.6 0-1.1 0-1.6 0"/><path d="m35.5 55.7c-2.2 0-3.4 0-3.4 0-.7 11.9-1.3 22-.9 35.6h50.5s-.9-26.4-2.6-35.6c-11.3 0-21 0-28.6 0"/><path d="m119.5 72.1h-30.5c-.1-5.4-.9-9.7-1.7-13.6h29.2c2.4 4.6 2.6 7.7 3 13.6z" fill-rule="nonzero"/><path d="m92.9 64.8h21.1"/><path d="m37.2 108.1h3.9"/><path d="m47.4 108.1h4"/><path d="m57.6 108.1h4"/><path d="m35.3 114.7h4.6"/><path d="m47.2 114.7h4.6"/><path d="m59.1 114.7h4.6"/></g></g></svg>

<?xml version="1.0" encoding="UTF-8"?>
<svg width="148px" height="144px" viewBox="0 0 148 144" version="1.1" xmlns="http://www.w3.org/2000/svg" xmlns:xlink="http://www.w3.org/1999/xlink">
    <!-- Generator: Sketch 51.2 (57519) - http://www.bohemiancoding.com/sketch -->
    <title>ATM_2</title>
    <desc>Created with Sketch.</desc>
    <defs></defs>
    <g id="Page-1" stroke="none" stroke-width="1" fill="none" fill-rule="evenodd">
        <g id="ATM_2" transform="translate(1.000000, 1.000000)">
            <polyline id="Shape" class="fill-neutral" fill-rule="nonzero" points="38.9 0.5 145.3 0.5 145.3 140.9 0.8 140.9 0.8 0.5 6.5 0.5"></polyline>
            <path d="M145.3,5.3 L145.3,140.9 L0.6,140.9 L0.6,12.7 C0.6,8.6 4,5.3 8.1,5.3 L145.3,5.3 Z" id="Shape" class="fill-primary-100" fill-rule="nonzero"></path>
            <path d="M145.3,32.3 L145.3,48.9 L0.6,48.9 L0.6,43.2 C0.6,37.2 5.5,32.3 11.5,32.3 L145.3,32.3 Z" id="Shape" fill="#C3DBF7" fill-rule="nonzero"></path>
            <path d="M25.9,32.6 C22.7,36.7 19.7,43 17.9,48.9 C17.1,51.5 16.6,54 16.4,56.2 C15,68.8 13.7,80.2 14.2,92.9 C14.4,96.6 14.9,100.8 13.2,104.2 C12.4,105.9 10.4,108.3 9.1,109.8 C6.3,113 3.3,117.4 0.5,120.5 L0.5,39.4 C0.5,36 3.3,33.1 6.7,33.1 L25.9,32.6 Z" id="Shape" class="fill-primary-300" fill-rule="nonzero"></path>
            <path d="M145.3,33.1 L145.3,119.4 C121.3,91.6 137.9,113.6 129,57.3 C128.6,54.8 128.3,51.9 127.8,48.9 C126.9,43.1 125.6,37 122.6,33.1 L145.3,33.1 Z" id="Shape" class="fill-primary-300" fill-rule="nonzero"></path>
            <path d="M6.8,33 L25.9,32.6 C22.7,36.7 19.7,43 17.9,48.9 L0.6,48.9 L0.6,39.3 C0.6,35.9 3.4,33 6.8,33 Z" id="Shape" fill="#80B9FF" fill-rule="nonzero"></path>
            <path d="M145.3,33.1 L145.3,48.9 L127.9,48.9 C127,43.1 125.7,37 122.7,33.1 L145.3,33.1 Z" id="Shape" fill="#80B9FF" fill-rule="nonzero"></path>
            <polyline id="Shape" class="stroke-primary" stroke-width="3" stroke-linecap="round" stroke-linejoin="round" points="30.4 0.5 145.3 0.5 145.3 140.9 0.8 140.9 0.8 0.5 13 0.5"></polyline>
            <path d="M19.9,0.5 L23.2,0.5" id="Shape" class="stroke-primary" stroke-width="3" stroke-linecap="round" stroke-linejoin="round"></path>
            <path d="M8.3,32.5 L144.2,32.5" id="Shape" class="stroke-primary" stroke-width="3" stroke-linecap="round" stroke-linejoin="round"></path>
            <polyline id="Shape" class="fill-neutral" fill-rule="nonzero" points="120.1 102.2 14.9 102.2 0.8 120.3 145.4 120.3 131 102.2 120.1 102.2"></polyline>
            <polyline id="Shape" class="stroke-primary" stroke-width="3" stroke-linecap="round" stroke-linejoin="round" points="128.7 120.3 145.4 120.3 131 102.2 120.1 102.2"></polyline>
            <polyline id="Shape" class="stroke-primary" stroke-width="3" stroke-linecap="round" stroke-linejoin="round" points="120.1 102.2 14.9 102.2 0.8 120.3 118.7 120.3"></polyline>
            <path d="M23.6,33.1 C21.1,36.8 12.5,66.6 14.9,102.2" id="Shape" class="stroke-primary" stroke-width="3" stroke-linecap="round" stroke-linejoin="round"></path>
            <path d="M129.7,61.7 C131,71 131.9,81.9 131.6,93.8" id="Shape" class="stroke-primary" stroke-width="3" stroke-linecap="round" stroke-linejoin="round"></path>
            <path d="M122.6,33.1 C123.7,34.8 126.2,42.1 128.3,53" id="Shape" class="stroke-primary" stroke-width="3" stroke-linecap="round" stroke-linejoin="round"></path>
            <path d="M31.2,91.3 L81.7,91.3 C81.7,91.3 80.8,64.9 79.1,55.7 C50.3,55.7 32.1,55.7 32.1,55.7 C31.4,67.6 30.8,77.7 31.2,91.3 Z" id="Shape" class="fill-primary-500" fill-rule="nonzero"></path>
            <path d="M42.2,55.7 C41.6,55.7 41.1,55.7 40.6,55.7" id="Shape" class="stroke-primary" stroke-width="3" stroke-linecap="round" stroke-linejoin="round"></path>
            <path d="M35.5,55.7 C33.3,55.7 32.1,55.7 32.1,55.7 C31.4,67.6 30.8,77.7 31.2,91.3 L81.7,91.3 C81.7,91.3 80.8,64.9 79.1,55.7 C67.8,55.7 58.1,55.7 50.5,55.7" id="Shape" class="stroke-primary" stroke-width="3" stroke-linecap="round" stroke-linejoin="round"></path>
            <path d="M119.5,72.1 L89,72.1 C88.9,66.7 88.1,62.4 87.3,58.5 L116.5,58.5 C118.9,63.1 119.1,66.2 119.5,72.1 Z" id="Shape" stroke-width="3" class="stroke-primary fill-neutral" fill-rule="nonzero" stroke-linecap="round" stroke-linejoin="round"></path>
            <path d="M92.9,64.8 L114,64.8" id="Shape" class="stroke-primary" stroke-width="3" stroke-linecap="round" stroke-linejoin="round"></path>
            <path d="M37.2,108.1 L41.1,108.1" id="Shape" class="stroke-primary" stroke-width="3" stroke-linecap="round" stroke-linejoin="round"></path>
            <path d="M47.4,108.1 L51.4,108.1" id="Shape" class="stroke-primary" stroke-width="3" stroke-linecap="round" stroke-linejoin="round"></path>
            <path d="M57.6,108.1 L61.6,108.1" id="Shape" class="stroke-primary" stroke-width="3" stroke-linecap="round" stroke-linejoin="round"></path>
            <path d="M35.3,114.7 L39.9,114.7" id="Shape" class="stroke-primary" stroke-width="3" stroke-linecap="round" stroke-linejoin="round"></path>
            <path d="M47.2,114.7 L51.8,114.7" id="Shape" class="stroke-primary" stroke-width="3" stroke-linecap="round" stroke-linejoin="round"></path>
            <path d="M59.1,114.7 L63.7,114.7" id="Shape" class="stroke-primary" stroke-width="3" stroke-linecap="round" stroke-linejoin="round"></path>
        </g>
    </g>
</svg>
